src/icons/editor/glyph/DistributeHorizontalIcon.svg

<svg width="24" height="24" viewBox="0 0 24 24" fill="none" xmlns="http://www.w3.org/2000/svg">
<path d="M20 3C20.5523 3 21 3.44772 21 4V20C21 20.5523 20.5523 21 20 21H18C17.4477 21 17 20.5523 17 20L17 4C17 3.44772 17.4477 3 18 3L20 3Z" fill="currentColor"/>
<path d="M13 7V17H11L11 7H13Z" fill="currentColor"/>
<path d="M6 3C6.55228 3 7 3.44772 7 4L7 20C7 20.5523 6.55228 21 6 21H4C3.44772 21 3 20.5523 3 20L3 4C3 3.44772 3.44772 3 4 3L6 3Z" fill="currentColor"/>
</svg>

<svg xmlns="http://www.w3.org/2000/svg" width="24" height="24" fill="currentColor" viewBox="0 0 24 24">
  <path d="M20 3a1 1 0 0 1 1 1v16a1 1 0 0 1-1 1h-2a1 1 0 0 1-1-1V4a1 1 0 0 1 1-1h2Zm-7 4v10h-2V7h2ZM6 3a1 1 0 0 1 1 1v16a1 1 0 0 1-1 1H4a1 1 0 0 1-1-1V4a1 1 0 0 1 1-1h2Z"/>
</svg>
